X: 37462
T: Sliabh Russell
R: jig
M: 6/8
K: Adorian
|:e2A Bcd|eaf ged|edB cBA|BAG AB/c/d|
e2A Bcd|eaf ged|edB cBA|EFG AB/c/d:|
|:e2a efg|agf gfd|e2a efg|fed g2f|
eaa efg|agf gfd|edB cBA|EFG AB/c/d:|

